_includes/icons/color-mov.svg

<svg fill="#666" height="50" viewBox="0 0 48 48" width="50" xmlns="http://www.w3.org/2000/svg"><path d="m40 45h-32v-42h22l10 10z" fill="#f44336"/><g fill="#ffebee"><path d="m38.5 14h-9.5v-9.5z"/><path d="m14.425781 23.046875 1.878907 7.199219 1.875-7.199219h2.625v9.953125h-2.019532v-2.691406l.1875-4.152344-1.992187 6.84375h-1.367188l-1.988281-6.84375.183594 4.148438v2.695312h-2.007813v-9.953125z"/><path d="m29.421875 28.917969c0 1.335937-.3125 2.371094-.945312 3.109375-.632813.738281-1.507813 1.109375-2.628907 1.109375-1.117187 0-1.992187-.367188-2.632812-1.097656-.636719-.730469-.960938-1.757813-.96875-3.074219v-1.699219c0-1.367187.316406-2.4375.949219-3.203125.632812-.769531 1.511718-1.152344 2.640625-1.152344 1.105468 0 1.976562.375 2.617187 1.132813.636719.753906.960938 1.8125.96875 3.175781zm-2.015625-1.667969c0-.894531-.128906-1.5625-.382812-2.003906-.257813-.4375-.652344-.652344-1.1875-.652344-.535157 0-.929688.210938-1.183594.628906-.257813.421875-.386719 1.0625-.398438 1.925782v1.773437c0 .867188.132813 1.511719.390625 1.921875.261719.414063.660157.621094 1.203125.621094.523438 0 .914063-.203125 1.167969-.605469.257813-.402344.386719-1.03125.390625-1.878906z"/><path d="m33.953125 30.265625 1.675781-7.21875h2.242188l-2.871094 9.953125h-2.089844l-2.851562-9.953125h2.226562z"/></g></svg>

<svg xmlns="http://www.w3.org/2000/svg" viewBox="0 0 48 48" width="50" height="50" fill="#666"><path d="M 40 45 L 8 45 L 8 3 L 30 3 L 40 13 Z" fill="#f44336"/><path d="M 38.5 14 L 29 14 L 29 4.5 Z" fill="#ffebee"/><path d="M 14.425781 23.046875 L 16.304688 30.246094 L 18.179688 23.046875 L 20.804688 23.046875 L 20.804688 33 L 18.785156 33 L 18.785156 30.308594 L 18.972656 26.15625 L 16.980469 33 L 15.613281 33 L 13.625 26.15625 L 13.808594 30.304688 L 13.808594 33 L 11.800781 33 L 11.800781 23.046875 Z" fill="#ffebee"/><path d="M 29.421875 28.917969 C 29.421875 30.253906 29.109375 31.289063 28.476563 32.027344 C 27.84375 32.765625 26.96875 33.136719 25.847656 33.136719 C 24.730469 33.136719 23.855469 32.769531 23.214844 32.039063 C 22.578125 31.308594 22.253906 30.28125 22.246094 28.964844 L 22.246094 27.265625 C 22.246094 25.898438 22.5625 24.828125 23.195313 24.0625 C 23.828125 23.292969 24.707031 22.910156 25.835938 22.910156 C 26.941406 22.910156 27.8125 23.285156 28.453125 24.042969 C 29.089844 24.796875 29.414063 25.855469 29.421875 27.21875 Z M 27.40625 27.25 C 27.40625 26.355469 27.277344 25.6875 27.023438 25.246094 C 26.765625 24.808594 26.371094 24.59375 25.835938 24.59375 C 25.300781 24.59375 24.90625 24.804688 24.652344 25.222656 C 24.394531 25.644531 24.265625 26.285156 24.253906 27.148438 L 24.253906 28.921875 C 24.253906 29.789063 24.386719 30.433594 24.644531 30.84375 C 24.90625 31.257813 25.304688 31.464844 25.847656 31.464844 C 26.371094 31.464844 26.761719 31.261719 27.015625 30.859375 C 27.273438 30.457031 27.402344 29.828125 27.40625 28.980469 Z" fill="#ffebee"/><path d="M 33.953125 30.265625 L 35.628906 23.046875 L 37.871094 23.046875 L 35 33 L 32.910156 33 L 30.058594 23.046875 L 32.285156 23.046875 Z" fill="#ffebee"/></svg>
